svgs/arrows/arrows-triangle.svg

<svg width="24" height="24" viewBox="0 0 24 24" fill="none" xmlns="http://www.w3.org/2000/svg">
<path d="M13 19.0005H17.2942C19.1594 19.0005 20.092 19.0005 20.6215 18.6097C21.0832 18.2689 21.3763 17.7464 21.4263 17.1748C21.4836 16.5191 20.9973 15.7234 20.0247 14.1318L19.0278 12.5005M6.13014 10.6057L3.97528 14.1318C3.00267 15.7234 2.51637 16.5191 2.57372 17.1748C2.62372 17.7464 2.91681 18.2689 3.37846 18.6097C3.90799 19.0005 4.84059 19.0005 6.70578 19.0005H8.5M16.8889 9.00048L14.7305 5.46857C13.8277 3.99128 13.3763 3.25263 12.7952 3.00082C12.2879 2.78098 11.7121 2.78098 11.2048 3.00082C10.6237 3.25263 10.1723 3.99128 9.2695 5.46857L8.24967 7.13738M18 5.00055L16.9019 9.09862L12.8038 8.00055M2 11.5986L6.09808 10.5005L7.19615 14.5986M15.5 22.0005L12.5 19.0005L15.5 16.0005" stroke="#1C1D20" stroke-width="1.5" stroke-linecap="round" stroke-linejoin="round"/>
</svg>

<svg fill="none" xmlns="http://www.w3.org/2000/svg" viewBox="0 0 24 24"><path d="M13 19h4.294c1.865 0 2.798 0 3.328-.39a2 2 0 0 0 .804-1.435c.058-.656-.429-1.452-1.401-3.043l-.997-1.631M6.13 10.606l-2.155 3.526c-.972 1.591-1.459 2.387-1.401 3.043a2 2 0 0 0 .804 1.435c.53.39 1.463.39 3.328.39H8.5m8.389-10L14.73 5.47c-.901-1.48-1.353-2.217-1.935-2.47a2 2 0 0 0-1.59 0c-.581.252-1.033.99-1.935 2.468L8.25 7.137M18 5.001l-1.098 4.098L12.804 8M2 11.599 6.098 10.5l1.098 4.098M15.5 22l-3-3 3-3" stroke="#1C1D20" stroke-width="1.5" stroke-linecap="round" stroke-linejoin="round"/></svg>
